Point/img/five-vector.svg

<svg width="774" height="622" viewBox="0 0 774 622" fill="none" xmlns="http://www.w3.org/2000/svg">
<path fill-rule="evenodd" clip-rule="evenodd" d="M407.102 7.77054C465.583 19.3551 505.918 71.6063 559.295 100.333C629.266 137.991 738.437 122.471 767.746 201.866C796.511 279.785 718.883 355.785 680.43 428.472C650.439 485.164 619.708 541.289 569.483 576.641C521.336 610.531 464.024 626.591 407.102 620.861C353.478 615.462 315.781 565.587 264.966 545.986C181.915 513.951 64.8713 551.367 16.7616 470.297C-28.6038 393.85 28.5962 290.605 64.6046 208.352C96.7053 135.026 143.788 69.207 209.093 30.9616C269.153 -4.21246 340.138 -5.49439 407.102 7.77054Z" fill="#C6E1F6"/>
</svg>

<svg width="774" height="622" fill="none" xmlns="http://www.w3.org/2000/svg"><path fill-rule="evenodd" clip-rule="evenodd" d="M407.102 7.77c58.481 11.585 98.816 63.836 152.193 92.563 69.971 37.658 179.142 22.138 208.451 101.533 28.765 77.919-48.863 153.919-87.316 226.606-29.991 56.692-60.722 112.817-110.947 148.169-48.147 33.89-105.459 49.95-162.381 44.22-53.624-5.399-91.321-55.274-142.136-74.875-83.051-32.035-200.095 5.381-248.204-75.689-45.366-76.447 11.834-179.692 47.843-261.945 32.1-73.326 79.183-139.145 144.488-177.39C269.153-4.212 340.138-5.494 407.102 7.77z" fill="#C6E1F6"/></svg>
